;Sliced by ideaMaker 5.1.0.8435, 2025-03-04 09:18:54 UTC-0500
;Slicer Version: 5.1.0.8430
;Dimension: 250.000 9999.000 250.000 1.000
;Plate Shape: 0
;Origin Center: 0
;Belt Printer: 1
;Belt Base Y: 5072.178
;Belt Base Z: 0.000
;Belt Offset Y: 0.000
;Belt Offset Z: 3586.571
;Belt Gantry Angle: 45
;Belt Remove Z: 0.566
;Belt Repetition: 1
;Extruder Offset #1: 25.000 0.000
;Filament Diameter #1: 1.750
;Filament Diameter #2: 1.750
;Filament Compensation #1: 98.000
;Filament Compensation #2: 100.000
;Filament Density #1: 1240.000
;Filament Density #2: 1240.000
;Filament Type #1: PETG
;Filament Type #2: 
;Filament Name #1: PETG 1.75mm
;Filament Name #2: 
;Printer Type: IdeaFormer IR3 V2
;Firmware: Klipper
;Bounding Box: 100.000 150.000 -0.150 51.263 0.400 25.766
;Model Gap: 0.000
;
;
M221 T0 S98.00
PRINT_START
M140 S80
M104 T0 S248
M109 T0 S248
M190 S80
G92 E0        ; Set axis to 0
G1 Y.1
G1 E15 F1000
G1 Z20 E25 F800
G1 E23
G28 Y
G1 E25
FMS_on
G1 X20 E25 F2000
G92 Z0
G1 Z.4
G1 X0 E25
G1 F1000
G92 E0 Z0
;end of Start GCode
;TOTAL_NUM: 1
;PRINTING_TIME: 0
;REMAINING_TIME: 610
M83
;LAYER:0
;Z:0.800
;HEIGHT:0.800
;HEIGHT-BELT:0.566
;BELT-FIRST-Z:0.800
M106 S26
;PRINTING: Base.stl
;PRINTING_ID: 0
SET_VELOCITY_LIMIT ACCEL=10000.00
G0 F15000 X100.500 Y0.350
G0 F600 Z0.800
SET_VELOCITY_LIMIT ACCEL=8000.00
;TYPE:WALL-OUTER
;WIDTH:1.000
;HEIGHT:0.800
;HEIGHT-BELT:0.566
;FLOW:102.0
G1 F1293 X149.500 Y0.350 E8.1487
G1 X149.500 Y0.881 E0.0883
G1 X100.500 Y0.882 E8.1487
G1 X100.500 Y0.350 E0.0885
;PRINTING_TIME: 5
;REMAINING_TIME: 605
;LAYER:1
;Z:1.366
;HEIGHT:0.566
;HEIGHT-BELT:0.400
;PRINTING: Base.stl
;PRINTING_ID: 0
G1 F1800 E-0.4000
SET_VELOCITY_LIMIT ACCEL=10000.00
G0 F600 Z1.366
G0 F15000 X100.500 Y0.350
SET_VELOCITY_LIMIT ACCEL=8000.00
;TYPE:WALL-OUTER
;WIDTH:1.000
;FLOW:102.0
G1 F1800 E0.4500
G1 F1803 X104.500 Y0.350 E0.6652
G1 F1761 X107.500 Y0.350 E0.4989
G1 F1719 X110.500 Y0.350 E0.4989
G1 F1677 X113.500 Y0.350 E0.4989
G1 F1635 X116.500 Y0.350 E0.4989
G1 F1593 X119.500 Y0.350 E0.4989
G1 F1551 X122.500 Y0.350 E0.4989
G1 F1509 X125.500 Y0.350 E0.4989
G1 F1467 X128.500 Y0.350 E0.4989
G1 F1425 X131.500 Y0.350 E0.4989
G1 F1383 X134.500 Y0.350 E0.4989
G1 F1341 X137.500 Y0.350 E0.4989
G1 F1299 X140.500 Y0.350 E0.4989
G1 F1257 X143.500 Y0.350 E0.4989
G1 F1215 X146.500 Y0.350 E0.4989
G1 F1173 X149.500 Y0.350 E0.4989
;FLOW:102.0
G1 F1131 X149.500 Y1.681 E0.2213
G1 X100.500 Y1.682 E8.1487
G1 X100.500 Y1.112 E0.0948
G1 X100.500 Y0.350 E0.1267
SET_VELOCITY_LIMIT ACCEL=10000.00
G0 F15000 X102.116 Y0.850
;TYPE:GAP-FILL
;WIDTH:1.000
;WIDTH:0.527
G1 F1696 X102.989 Y1.015 E0.0779
;WIDTH:0.330
G1 X104.403 Y1.015 E0.0776
G1 X105.817 Y1.015 E0.0776
G1 X107.231 Y1.015 E0.0776
G1 X108.645 Y1.015 E0.0776
G1 X110.060 Y1.015 E0.0777
G1 X111.474 Y1.015 E0.0776
G1 X112.888 Y1.015 E0.0776
G1 X114.302 Y1.015 E0.0776
G1 X115.716 Y1.015 E0.0776
G1 X117.131 Y1.015 E0.0777
G1 X118.545 Y1.015 E0.0776
G1 X119.959 Y1.015 E0.0776
G1 X121.373 Y1.015 E0.0776
G1 X122.788 Y1.015 E0.0777
G1 X124.202 Y1.015 E0.0776
G1 X125.616 Y1.015 E0.0776
G1 X127.030 Y1.015 E0.0776
G1 X128.444 Y1.015 E0.0776
G1 X129.859 Y1.015 E0.0777
G1 X131.273 Y1.015 E0.0776
G1 X132.687 Y1.015 E0.0776
G1 X134.101 Y1.015 E0.0776
G1 X135.515 Y1.015 E0.0776
G1 X136.930 Y1.015 E0.0777
G1 X138.344 Y1.015 E0.0776
G1 X139.758 Y1.015 E0.0776
G1 X141.172 Y1.015 E0.0776
G1 X142.587 Y1.015 E0.0777
G1 X144.001 Y1.015 E0.0776
G1 X145.415 Y1.015 E0.0776
G1 X146.829 Y1.015 E0.0776
G1 X148.243 Y1.015 E0.0776
;WIDTH:1.000
G1 X148.999 Y1.064 E0.1260
;PRINTING_TIME: 12
;REMAINING_TIME: 599
;LAYER:2
;Z:1.932
;HEIGHT:0.566
;HEIGHT-BELT:0.400
;PRINTING: Base.stl
;PRINTING_ID: 0
G1 F1800 E-0.4000
G0 F600 Z1.932
G0 F15000 X100.500 Y0.350
SET_VELOCITY_LIMIT ACCEL=8000.00
;TYPE:WALL-OUTER
;WIDTH:1.000
;FLOW:102.0
G1 F1800 E0.4500
G1 F2244 X103.061 Y0.350 E0.4259
G1 F2200 X106.061 Y0.350 E0.4989
G1 F2156 X109.061 Y0.350 E0.4989
G1 F2112 X112.061 Y0.350 E0.4989
G1 F2068 X115.061 Y0.350 E0.4989
G1 F2024 X118.061 Y0.350 E0.4989
G1 F1980 X121.061 Y0.350 E0.4989
G1 F1936 X124.061 Y0.350 E0.4989
G1 F1892 X127.061 Y0.350 E0.4989
G1 F1848 X130.061 Y0.350 E0.4989
G1 F1804 X133.061 Y0.350 E0.4989
G1 F1760 X136.061 Y0.350 E0.4989
G1 F1716 X139.061 Y0.350 E0.4989
G1 F1672 X142.061 Y0.350 E0.4989
G1 F1628 X145.061 Y0.350 E0.4989
G1 F1584 X148.061 Y0.350 E0.4989
G1 F1540 X149.500 Y0.350 E0.2393
G1 X149.500 Y1.911 E0.2596
;FLOW:102.0
G1 F1496 X149.500 Y2.481 E0.0948
G1 X100.500 Y2.482 E8.1487
G1 X100.500 Y1.912 E0.0948
;FLOW:102.0
;WIDTH:1.451
G1 F2651 X100.749 Y0.865 E0.2597
;WIDTH:0.698
G1 X101.671 Y1.415 E0.1246
;WIDTH:1.131
G1 X103.085 Y1.415 E0.2660
G1 X104.500 Y1.415 E0.2661
G1 X105.914 Y1.415 E0.2660
G1 X107.328 Y1.415 E0.2660
G1 X108.742 Y1.415 E0.2660
G1 X110.156 Y1.415 E0.2660
;WIDTH:1.130
G1 X111.571 Y1.415 E0.2659
;WIDTH:1.131
G1 X112.985 Y1.415 E0.2660
G1 X114.399 Y1.415 E0.2660
G1 X115.813 Y1.415 E0.2660
G1 X117.227 Y1.415 E0.2660
;WIDTH:1.130
G1 X118.642 Y1.415 E0.2659
;WIDTH:1.131
G1 X120.056 Y1.415 E0.2660
G1 X121.470 Y1.415 E0.2660
G1 X122.884 Y1.415 E0.2660
G1 X124.299 Y1.415 E0.2661
G1 X125.713 Y1.415 E0.2660
G1 X127.127 Y1.415 E0.2660
G1 X128.541 Y1.415 E0.2660
G1 X129.955 Y1.415 E0.2660
;WIDTH:1.130
G1 X131.370 Y1.415 E0.2659
;WIDTH:1.131
G1 X132.784 Y1.415 E0.2660
G1 X134.198 Y1.415 E0.2660
G1 X135.612 Y1.415 E0.2660
G1 X137.026 Y1.415 E0.2660
;WIDTH:1.130
G1 X138.441 Y1.415 E0.2659
;WIDTH:1.131
G1 X139.855 Y1.415 E0.2660
G1 X141.269 Y1.415 E0.2660
G1 X142.683 Y1.415 E0.2660
;WIDTH:1.130
G1 X144.098 Y1.415 E0.2659
;WIDTH:1.131
G1 X145.512 Y1.415 E0.2660
G1 X146.926 Y1.415 E0.2660
;WIDTH:0.945
G1 X148.599 Y1.156 E0.2661
;WIDTH:1.000
G1 X148.482 Y1.981 E0.1386
;PRINTING_TIME: 17
;REMAINING_TIME: 594
;LAYER:3
;Z:2.498
;HEIGHT:0.566
;HEIGHT-BELT:0.400
;PRINTING: Base.stl
;PRINTING_ID: 0
G1 F1800 E-0.4000
SET_VELOCITY_LIMIT ACCEL=10000.00
G0 F600 Z2.498
G0 F15000 X100.500 Y3.282
SET_VELOCITY_LIMIT ACCEL=8000.00
;TYPE:WALL-OUTER
;WIDTH:1.000
;FLOW:102.0
G1 F1800 E0.4500
G1 F1312 X100.500 Y2.712 E0.0948
;FLOW:102.0
G1 F1355 X100.500 Y0.350 E0.3928
G1 X101.138 Y0.350 E0.1061
G1 F1398 X104.138 Y0.350 E0.4989
G1 F1441 X107.138 Y0.350 E0.4989
G1 F1484 X110.138 Y0.350 E0.4989
G1 F1527 X113.138 Y0.350 E0.4989
G1 F1570 X116.138 Y0.350 E0.4989
G1 F1613 X119.138 Y0.350 E0.4989
G1 F1656 X122.138 Y0.350 E0.4989
G1 F1699 X125.138 Y0.350 E0.4989
G1 F1742 X128.138 Y0.350 E0.4989
G1 F1785 X131.138 Y0.350 E0.4989
G1 F1828 X134.138 Y0.350 E0.4989
G1 F1871 X137.138 Y0.350 E0.4989
G1 F1914 X140.138 Y0.350 E0.4989
G1 F1957 X143.138 Y0.350 E0.4989
G1 F2000 X146.138 Y0.350 E0.4989
G1 F2043 X149.500 Y0.350 E0.5591
G1 F2086 X149.500 Y2.711 E0.3926
;FLOW:102.0
G1 F1312 X149.500 Y3.281 E0.0948
G1 X100.500 Y3.282 E8.1487
SET_VELOCITY_LIMIT ACCEL=10000.00
G0 F15000 X101.500 Y2.282
;TYPE:WALL-INNER
;WIDTH:1.000
G1 F1356 X101.500 Y1.350 E0.1550
G1 X103.568 Y1.350 E0.3439
G1 F1400 X106.568 Y1.350 E0.4989
G1 F1444 X109.568 Y1.350 E0.4989
G1 F1488 X112.568 Y1.350 E0.4989
G1 F1532 X115.568 Y1.350 E0.4989
G1 F1576 X118.568 Y1.350 E0.4989
G1 F1620 X121.568 Y1.350 E0.4989
G1 F1664 X124.568 Y1.350 E0.4989
G1 F1708 X127.568 Y1.350 E0.4989
G1 F1752 X130.568 Y1.350 E0.4989
G1 F1796 X133.568 Y1.350 E0.4989
G1 F1840 X136.568 Y1.350 E0.4989
G1 F1884 X139.568 Y1.350 E0.4989
G1 F1928 X142.568 Y1.350 E0.4989
G1 F1972 X145.568 Y1.350 E0.4989
G1 F2016 X148.500 Y1.350 E0.4876
G1 X148.500 Y2.281 E0.1548
G1 F2060 X145.500 Y2.281 E0.4989
G1 F2104 X142.500 Y2.281 E0.4989
G1 F2148 X139.500 Y2.281 E0.4989
G1 F2192 X136.500 Y2.281 E0.4989
G1 F2236 X133.500 Y2.281 E0.4989
G1 F2280 X130.500 Y2.281 E0.4989
G1 F2324 X127.500 Y2.281 E0.4989
G1 F2368 X124.500 Y2.281 E0.4989
G1 F2412 X121.500 Y2.281 E0.4989
G1 F2456 X118.500 Y2.281 E0.4989
G1 F2500 X115.500 Y2.281 E0.4989
G1 F2544 X112.500 Y2.281 E0.4989
G1 F2588 X109.500 Y2.281 E0.4989
G1 F2632 X106.500 Y2.281 E0.4989
G1 F2676 X103.500 Y2.281 E0.4989
G1 F2720 X101.500 Y2.282 E0.3326
;PRINTING_TIME: 24
;REMAINING_TIME: 586
;LAYER:4
;Z:3.064
;HEIGHT:0.566
;HEIGHT-BELT:0.400
M106 S51
;PRINTING: Base.stl
;PRINTING_ID: 0
G1 F1800 E-0.4000
G0 F600 Z3.064
G0 F15000 X100.500 Y4.082
SET_VELOCITY_LIMIT ACCEL=8000.00
;TYPE:WALL-OUTER
;WIDTH:1.000
;FLOW:102.0
G1 F1800 E0.4500
G1 F1526 X100.500 Y3.512 E0.0948
;FLOW:102.0
G1 F1570 X100.500 Y0.350 E0.5258
G1 F1614 X103.500 Y0.350 E0.4989
G1 F1658 X106.500 Y0.350 E0.4989
G1 F1702 X109.500 Y0.350 E0.4989
G1 F1746 X112.500 Y0.350 E0.4989
G1 F1790 X115.500 Y0.350 E0.4989
G1 F1834 X118.500 Y0.350 E0.4989
G1 F1878 X121.500 Y0.350 E0.4989
G1 F1922 X124.500 Y0.350 E0.4989
G1 F1966 X127.500 Y0.350 E0.4989
G1 F2010 X130.500 Y0.350 E0.4989
G1 F2054 X133.500 Y0.350 E0.4989
G1 F2098 X136.500 Y0.350 E0.4989
G1 F2142 X139.500 Y0.350 E0.4989
G1 F2186 X142.500 Y0.350 E0.4989
G1 F2230 X145.500 Y0.350 E0.4989
G1 F2274 X149.500 Y0.350 E0.6652
G1 F2318 X149.500 Y3.511 E0.5257
;FLOW:102.0
G1 F1526 X149.500 Y4.081 E0.0948
G1 X100.500 Y4.082 E8.1487
SET_VELOCITY_LIMIT ACCEL=10000.00
G0 F15000 X101.500 Y3.082
;TYPE:WALL-INNER
;WIDTH:1.000
G1 F1570 X101.500 Y1.350 E0.2880
G1 X102.768 Y1.350 E0.2109
G1 F1614 X105.768 Y1.350 E0.4989
G1 F1658 X108.768 Y1.350 E0.4989
G1 F1702 X111.768 Y1.350 E0.4989
G1 F1746 X114.768 Y1.350 E0.4989
G1 F1790 X117.768 Y1.350 E0.4989
G1 F1834 X120.768 Y1.350 E0.4989
G1 F1878 X123.768 Y1.350 E0.4989
G1 F1922 X126.768 Y1.350 E0.4989
G1 F1966 X129.768 Y1.350 E0.4989
G1 F2010 X132.768 Y1.350 E0.4989
G1 F2054 X135.768 Y1.350 E0.4989
G1 F2098 X138.768 Y1.350 E0.4989
G1 F2142 X141.768 Y1.350 E0.4989
G1 F2186 X144.768 Y1.350 E0.4989
G1 F2230 X148.500 Y1.350 E0.6206
G1 F2274 X148.500 Y3.081 E0.2879
G1 X147.231 Y3.081 E0.2110
G1 F2318 X144.231 Y3.081 E0.4989
G1 F2362 X141.231 Y3.081 E0.4989
G1 F2406 X138.231 Y3.081 E0.4989
G1 F2450 X135.231 Y3.081 E0.4989
G1 F2494 X132.231 Y3.081 E0.4989
G1 F2538 X129.231 Y3.081 E0.4989
G1 F2582 X126.231 Y3.081 E0.4989
G1 F2626 X123.231 Y3.081 E0.4989
G1 F2670 X120.231 Y3.081 E0.4989
G1 F2714 X117.231 Y3.081 E0.4989
G1 F2758 X114.231 Y3.081 E0.4989
G1 F2802 X111.231 Y3.081 E0.4989
G1 F2846 X108.231 Y3.081 E0.4989
G1 F2890 X105.231 Y3.081 E0.4989
G1 F2934 X101.500 Y3.082 E0.6205
G0 F15000 X102.627 Y2.581
;TYPE:GAP-FILL
;WIDTH:1.000
;WIDTH:0.912
G1 F2289 X103.699 Y2.215 E0.1718
;WIDTH:0.730
G1 X105.113 Y2.215 E0.1717
G1 X106.527 Y2.215 E0.1717
G1 X107.942 Y2.215 E0.1718
G1 X109.356 Y2.215 E0.1717
G1 X110.770 Y2.215 E0.1717
G1 X112.184 Y2.215 E0.1717
G1 X113.599 Y2.215 E0.1718
G1 X115.013 Y2.215 E0.1717
G1 X116.427 Y2.215 E0.1717
G1 X117.841 Y2.215 E0.1717
G1 X119.255 Y2.215 E0.1717
G1 X120.670 Y2.215 E0.1718
G1 X122.084 Y2.215 E0.1717
G1 X123.498 Y2.215 E0.1717
G1 X124.912 Y2.215 E0.1717
G1 X126.326 Y2.215 E0.1717
G1 X127.741 Y2.215 E0.1718
G1 X129.155 Y2.215 E0.1717
G1 X130.569 Y2.215 E0.1717
G1 X131.983 Y2.215 E0.1717
G1 X133.398 Y2.215 E0.1718
G1 X134.812 Y2.215 E0.1717
G1 X136.226 Y2.215 E0.1717
G1 X137.640 Y2.215 E0.1717
G1 X139.054 Y2.215 E0.1717
G1 X140.469 Y2.215 E0.1718
G1 X141.883 Y2.215 E0.1717
G1 X143.297 Y2.215 E0.1717
G1 X144.711 Y2.215 E0.1717
G1 X146.125 Y2.215 E0.1717
;WIDTH:1.000
G1 X147.199 Y1.850 E0.1886
;PRINTING_TIME: 32
;REMAINING_TIME: 578
;LAYER:5
;Z:3.630
;HEIGHT:0.566
;HEIGHT-BELT:0.400
;PRINTING: Base.stl
;PRINTING_ID: 0
G1 F1800 E-0.4000
G0 F600 Z3.630
G0 F15000 X100.500 Y0.350
SET_VELOCITY_LIMIT ACCEL=8000.00
;TYPE:WALL-OUTER
;WIDTH:1.000
;FLOW:102.0
G1 F1800 E0.4500
G1 F2638 X104.500 Y0.350 E0.6652
G1 F2594 X107.500 Y0.350 E0.4989
G1 F2550 X110.500 Y0.350 E0.4989
G1 F2506 X113.500 Y0.350 E0.4989
G1 F2462 X116.500 Y0.350 E0.4989
G1 F2418 X119.500 Y0.350 E0.4989
G1 F2374 X122.500 Y0.350 E0.4989
G1 F2330 X125.500 Y0.350 E0.4989
G1 F2286 X128.500 Y0.350 E0.4989
G1 F2242 X131.500 Y0.350 E0.4989
G1 F2198 X134.500 Y0.350 E0.4989
G1 F2154 X137.500 Y0.350 E0.4989
G1 F2110 X140.500 Y0.350 E0.4989
G1 F2066 X143.500 Y0.350 E0.4989
G1 F2022 X146.500 Y0.350 E0.4989
G1 F1978 X149.500 Y0.350 E0.4989
G1 F1934 X149.500 Y4.311 E0.6587
;FLOW:102.0
G1 F1890 X149.500 Y4.881 E0.0948
G1 X100.500 Y4.882 E8.1487
G1 X100.500 Y4.312 E0.0948
;FLOW:102.0
G1 F1934 X100.500 Y0.350 E0.6589
SET_VELOCITY_LIMIT ACCEL=10000.00
G0 F15000 X101.500 Y1.350
;TYPE:WALL-INNER
;WIDTH:1.000
G1 F1978 X104.500 Y1.350 E0.4989
G1 F2022 X107.500 Y1.350 E0.4989
G1 F2066 X110.500 Y1.350 E0.4989
G1 F2110 X113.500 Y1.350 E0.4989
G1 F2154 X116.500 Y1.350 E0.4989
G1 F2198 X119.500 Y1.350 E0.4989
G1 F2242 X122.500 Y1.350 E0.4989
G1 F2286 X125.500 Y1.350 E0.4989
G1 F2330 X128.500 Y1.350 E0.4989
G1 F2374 X131.500 Y1.350 E0.4989
G1 F2418 X134.500 Y1.350 E0.4989
G1 F2462 X137.500 Y1.350 E0.4989
G1 F2506 X140.500 Y1.350 E0.4989
G1 F2550 X143.500 Y1.350 E0.4989
G1 F2594 X146.500 Y1.350 E0.4989
G1 F2638 X148.500 Y1.350 E0.3326
G1 X148.500 Y2.350 E0.1663
G1 F2682 X148.500 Y3.881 E0.2546
G1 X147.031 Y3.881 E0.2443
G1 F2726 X144.031 Y3.881 E0.4989
G1 F2770 X141.031 Y3.881 E0.4989
G1 F2814 X138.031 Y3.881 E0.4989
G1 F2858 X135.031 Y3.881 E0.4989
G1 F2902 X132.031 Y3.881 E0.4989
G1 F2946 X129.031 Y3.881 E0.4989
G1 F2990 X126.031 Y3.881 E0.4989
G1 F3034 X123.031 Y3.881 E0.4989
G1 F3078 X120.031 Y3.881 E0.4989
G1 F3122 X117.031 Y3.881 E0.4989
G1 F3166 X114.031 Y3.881 E0.4989
G1 F3210 X111.031 Y3.881 E0.4989
G1 F3254 X108.031 Y3.881 E0.4989
G1 F3298 X105.031 Y3.881 E0.4989
G1 F3342 X101.500 Y3.882 E0.5872
G1 F3386 X101.500 Y1.350 E0.4211
G0 F15000 X101.999 Y2.147
;TYPE:GAP-FILL
;WIDTH:1.000
G1 F2834 X103.233 Y3.381 E0.2902
G0 F2834 X104.647 Y3.381
G1 F2834 X103.116 Y1.850 E0.3601
G0 F2834 X104.530 Y1.850
G1 F2834 X106.061 Y3.381 E0.3601
G0 F2834 X107.475 Y3.381
G1 F2834 X105.945 Y1.850 E0.3600
G0 F2834 X107.359 Y1.850
G1 F2834 X108.890 Y3.381 E0.3601
G0 F2834 X110.304 Y3.381
G1 F2834 X108.773 Y1.850 E0.3601
G0 F2834 X110.187 Y1.850
G1 F2834 X111.718 Y3.381 E0.3601
G0 F2834 X113.132 Y3.381
G1 F2834 X111.601 Y1.850 E0.3601
G0 F2834 X113.016 Y1.850
G1 F2834 X114.547 Y3.381 E0.3601
G0 F2834 X115.961 Y3.381
G1 F2834 X114.430 Y1.850 E0.3601
G0 F2834 X115.844 Y1.850
G1 F2834 X117.375 Y3.381 E0.3601
G0 F2834 X118.789 Y3.381
G1 F2834 X117.258 Y1.850 E0.3601
G0 F2834 X118.673 Y1.850
G1 F2834 X120.203 Y3.381 E0.3600
G0 F2834 X121.618 Y3.381
G1 F2834 X120.087 Y1.850 E0.3601
G0 F2834 X121.501 Y1.850
G1 F2834 X123.032 Y3.381 E0.3601
G0 F2834 X124.446 Y3.381
G1 F2834 X122.915 Y1.850 E0.3601
G0 F2834 X124.329 Y1.850
G1 F2834 X125.860 Y3.380 E0.3600
G0 F2834 X127.274 Y3.380
G1 F2834 X125.744 Y1.850 E0.3598
G0 F2834 X127.158 Y1.850
G1 F2834 X128.688 Y3.380 E0.3598
G0 F2834 X130.102 Y3.380
G1 F2834 X128.572 Y1.850 E0.3598
G0 F2834 X129.986 Y1.850
G1 F2834 X131.516 Y3.380 E0.3598
G0 F2834 X132.931 Y3.380
G1 F2834 X131.400 Y1.850 E0.3600
G0 F2834 X132.815 Y1.850
G1 F2834 X134.345 Y3.380 E0.3598
G0 F2834 X135.759 Y3.380
G1 F2834 X134.229 Y1.850 E0.3598
G0 F2834 X135.643 Y1.850
G1 F2834 X137.173 Y3.380 E0.3598
G0 F2834 X138.587 Y3.380
G1 F2834 X137.057 Y1.850 E0.3598
G0 F2834 X138.472 Y1.850
G1 F2834 X140.002 Y3.380 E0.3598
G0 F2834 X141.416 Y3.380
G1 F2834 X139.886 Y1.850 E0.3598
G0 F2834 X141.300 Y1.850
G1 F2834 X142.830 Y3.380 E0.3598
G0 F2834 X144.244 Y3.380
G1 F2834 X142.714 Y1.850 E0.3598
G0 F2834 X144.128 Y1.850
G1 F2834 X145.659 Y3.380 E0.3600
G0 F2834 X147.073 Y3.380
G1 F2834 X145.543 Y1.850 E0.3598
G0 F2834 X146.957 Y1.850
G1 F2834 X147.999 Y2.892 E0.2451
;PRINTING_TIME: 41
;REMAINING_TIME: 570
;LAYER:6
;Z:4.196
;HEIGHT:0.566
;HEIGHT-BELT:0.400
;PRINTING: Base.stl
;PRINTING_ID: 0
G1 F1800 E-0.4000
G0 F600 Z4.196
